X:459
T: ChangHuar,yaochang xinlihua
N: C2077
O: China, Qinghai Haibei
S: I, 234 ]
N: Hui Han
R: Shange, Shangshanling]
M: 3/4
L: 1/16
K: Eb
B4A4F4 | B4c2e2c4 | f12- | f12 |
f4e2d2c4 | f4e2d2c4 | B4A4F4- | F8
z2FF | B4A8B4 | c8f2g2c4 | B2B6
B2B2A4F4 | B4c2e2 | c6e2 | f4e4f4 | e2d2c2z2
f2f2f2e2 | c4e2f2c8 | c2B2B12

